static/icons/arrow.svg

<svg fill="none" height="700" viewBox="0 0 700 700" width="700" xmlns="http://www.w3.org/2000/svg"><rect fill="#dcf2ff" height="700" rx="120" width="700"/><g clip-rule="evenodd" fill-rule="evenodd"><path d="m385.33 393.384v136.697c0 7.127 8.617 10.697 13.657 5.657l39.867-39.867 93.345 93.345c7.42 7.42 19.45 7.42 26.87 0l29.702-29.702c7.42-7.42 7.42-19.45 0-26.87l-93.345-93.345 40.258-40.258c5.04-5.039 1.47-13.657-5.657-13.657h-136.697c-4.418 0-8 3.582-8 8z" fill="#ffc93d"/><path d="m314.144 307.089v-136.697c0-7.127-8.617-10.696-13.657-5.656l-39.867 39.867-93.345-93.345c-7.42-7.42-19.45-7.42-26.87 0l-29.702 29.702c-7.42 7.42-7.42 19.45 0 26.87l93.345 93.345-40.258 40.257c-5.039 5.04-1.47 13.657 5.657 13.657h136.697c4.418 0 8-3.582 8-8z" fill="#69cb84"/><path d="m306.143 385.384h-136.696c-7.128 0-10.697 8.617-5.657 13.657l39.867 39.867-93.345 93.345c-7.42 7.42-7.42 19.45 0 26.87l29.702 29.702c7.42 7.42 19.45 7.42 26.87 0l93.345-93.345 40.258 40.258c5.039 5.04 13.656 1.47 13.656-5.657v-136.697c0-4.418-3.581-8-8-8z" fill="#33a1fd"/><path d="m393.331 315.089h136.696c7.128 0 10.697-8.617 5.657-13.657l-39.867-39.866 93.345-93.345c7.42-7.42 7.42-19.45 0-26.87l-29.702-29.702c-7.42-7.42-19.45-7.42-26.87 0l-93.345 93.344-40.257-40.257c-5.04-5.04-13.657-1.471-13.657 5.657v136.696c0 4.419 3.581 8 8 8z" fill="#e15285"/></g></svg>

<svg width="700" height="700" viewBox="0 0 700 700" fill="none" xmlns="http://www.w3.org/2000/svg">
<rect width="700" height="700" rx="120" fill="#DCF2FF"/>
<path fill-rule="evenodd" clip-rule="evenodd" d="M385.33 393.384L385.33 530.081C385.33 537.208 393.947 540.778 398.987 535.738L438.854 495.871L532.199 589.216C539.619 596.636 551.649 596.636 559.069 589.216L588.771 559.514C596.191 552.094 596.191 540.064 588.771 532.644L495.426 439.299L535.684 399.041C540.724 394.002 537.154 385.384 530.027 385.384L393.33 385.384C388.912 385.384 385.33 388.966 385.33 393.384Z" fill="#FFC93D"/>
<path fill-rule="evenodd" clip-rule="evenodd" d="M314.144 307.089L314.144 170.392C314.144 163.265 305.527 159.696 300.487 164.736L260.62 204.603L167.275 111.258C159.855 103.838 147.825 103.838 140.405 111.258L110.703 140.96C103.283 148.38 103.283 160.41 110.703 167.83L204.048 261.175L163.79 301.432C158.751 306.472 162.32 315.089 169.447 315.089L306.144 315.089C310.562 315.089 314.144 311.507 314.144 307.089Z" fill="#69CB84"/>
<path fill-rule="evenodd" clip-rule="evenodd" d="M306.143 385.384L169.447 385.384C162.319 385.384 158.75 394.001 163.79 399.041L203.657 438.908L110.312 532.253C102.892 539.673 102.892 551.703 110.312 559.123L140.014 588.825C147.434 596.245 159.464 596.245 166.884 588.825L260.229 495.48L300.487 535.738C305.526 540.778 314.143 537.208 314.143 530.081L314.143 393.384C314.143 388.966 310.562 385.384 306.143 385.384Z" fill="#33A1FD"/>
<path fill-rule="evenodd" clip-rule="evenodd" d="M393.331 315.089L530.027 315.089C537.155 315.089 540.724 306.472 535.684 301.432L495.817 261.566L589.162 168.221C596.582 160.801 596.582 148.771 589.162 141.351L559.46 111.649C552.04 104.229 540.01 104.229 532.59 111.649L439.245 204.993L398.988 164.736C393.948 159.696 385.331 163.265 385.331 170.393L385.331 307.089C385.331 311.508 388.912 315.089 393.331 315.089Z" fill="#E15285"/>
</svg>
